logos/docker-icon-wh.svg

﻿<svg xmlns="http://www.w3.org/2000/svg" viewBox="0 0 50 50" width="50" height="50" style="fill: rgb(255, 255, 255);">
    <path style="text-indent:0;text-align:start;line-height:normal;text-transform:none;block-progression:tb;-inkscape-font-specification:Sans" d="M 20 9 L 20 10 L 20 14 L 17 14 L 16 14 L 15 14 L 11 14 L 10 14 L 10 15 L 10 19 L 6 19 L 5 19 L 5 20 L 5 24 L 1.125 24 A 1.0001 1.0001 0 0 0 0.15625 24.8125 C 0.15625 24.8125 0 25.666164 0 26.75 C 0 27.437196 0.069343836 28.183483 0.1875 28.9375 C 0.13026209 28.951191 0.051904412 28.986857 0 29 L 0.1875 29 C 0.47842496 30.807239 1.1389417 32.734637 2.25 34.5625 C 2.254573 34.570023 2.2454114 34.586231 2.25 34.59375 A 1.0001 1.0001 0 0 0 2.28125 34.65625 A 1.0001 1.0001 0 0 0 2.65625 35.25 A 1.0001 1.0001 0 0 0 2.71875 35.28125 C 3.0256341 35.726155 3.3520139 36.171048 3.71875 36.59375 C 6.3956743 39.679187 10.737337 42 17 42 C 27.221226 42 35.868501 37.646352 40.75 29 L 49.84375 29 C 48.75775 28.725 46.4245 28.3605 46.8125 26.9375 C 45.520185 28.432762 43.056643 28.620752 41.15625 28.28125 C 41.518089 27.59302 41.872981 26.896267 42.1875 26.15625 C 45.079485 26.08338 47.152454 25.152162 48.3125 24.03125 C 49.580398 22.806124 49.96875 21.4375 49.96875 21.4375 A 1.0001 1.0001 0 0 0 49.625 20.40625 C 49.625 20.40625 47.098462 18.56436 43.3125 19.1875 C 42.232847 15.651385 39.4375 13.9375 39.4375 13.9375 A 1.0001 1.0001 0 0 0 38.75 13.8125 A 1.0001 1.0001 0 0 0 38.3125 14.03125 C 38.3125 14.03125 37.643707 14.601063 37.09375 15.625 C 36.543793 16.648937 36.036665 18.206935 36.21875 20.21875 C 36.30399 21.16046 36.60115 22.05572 37.03125 22.90625 C 36.788838 23.0539 36.648362 23.179093 36.25 23.34375 C 35.422219 23.685901 34.216041 24 32.5 24 L 32 24 L 32 20 L 32 19 L 31 19 L 27 19 L 27 16 L 27 15 L 27 14 L 27 10 L 27 9 L 26 9 L 21 9 L 20 9 z M 22 11 L 25 11 L 25 14 L 22 14 L 22 11 z M 12 16 L 15 16 L 15 19 L 12 19 L 12 16 z M 17 16 L 20 16 L 20 19 L 17 19 L 17 16 z M 22 16 L 25 16 L 25 19 L 22 19 L 22 16 z M 39.09375 16.21875 C 39.835583 16.767961 41.179079 17.920475 41.65625 20.4375 A 1.0001 1.0001 0 0 0 42.90625 21.21875 C 45.456291 20.519107 46.836568 21.093979 47.59375 21.53125 C 47.44899 21.845948 47.474559 22.044613 46.90625 22.59375 C 45.995398 23.473874 44.454091 24.359667 41.5625 24.25 A 1.0001 1.0001 0 0 0 40.59375 24.875 C 40.1945 25.869363 39.73253 26.793413 39.25 27.6875 C 39.100783 27.599945 38.976921 27.501727 38.875 27.40625 C 37.537 29.34625 29.76175 28.60575 29.21875 27.09375 C 27.54175 29.06175 22.33425 29.06175 20.65625 27.09375 C 20.11325 28.60575 12.30675 29.34625 10.96875 27.40625 C 9.76775 28.53225 5.0365 29.2215 3.0625 26.9375 C 3.2498346 27.62633 2.7662787 28.070506 2.125 28.375 C 2.0429253 27.805126 2 27.260485 2 26.75 C 2 26.318767 2.0332017 26.280488 2.0625 26 L 20 26 L 21 26 L 32 26 L 32.5 26 C 34.468959 26 35.945531 25.623349 37 25.1875 C 38.054469 24.751651 38.803448 24.218009 38.90625 24.15625 A 1.0001 1.0001 0 0 0 39.15625 22.6875 C 38.601672 21.963023 38.311876 21.060034 38.21875 20.03125 C 38.072835 18.419065 38.452707 17.290563 38.84375 16.5625 C 38.976705 16.314959 38.982843 16.36831 39.09375 16.21875 z M 7 21 L 10 21 L 10 24 L 7 24 L 7 21 z M 12 21 L 15 21 L 15 24 L 12 24 L 12 21 z M 17 21 L 20 21 L 20 24 L 17 24 L 17 21 z M 22 21 L 25 21 L 25 24 L 22 24 L 22 21 z M 27 21 L 30 21 L 30 24 L 27 24 L 27 21 z M 2.25 29 L 38.5 29 C 33.911811 36.413545 26.290121 40 17 40 C 11.530389 40 7.9839945 38.145829 5.65625 35.6875 C 10.094073 35.89822 13.53125 34.71875 13.53125 34.71875 A 1.0077822 1.0077822 0 0 0 13.28125 32.71875 A 1.0051139 1.0051139 0 0 0 13.125 32.75 A 1.0001 1.0001 0 0 0 12.875 32.8125 C 12.875 32.8125 8.7858415 34.208384 4 33.53125 C 3.1008073 32.051247 2.5349768 30.464393 2.25 29 z M 16 31 C 15.448 31 15 31.448 15 32 C 15 32.552 15.448 33 16 33 C 16.552 33 17 32.552 17 32 C 17 31.864 16.9865 31.743 16.9375 31.625 C 16.8685 31.751 16.7165 31.84375 16.5625 31.84375 C 16.3375 31.84375 16.15625 31.63125 16.15625 31.40625 C 16.15625 31.25525 16.253 31.1325 16.375 31.0625 C 16.263 31.0185 16.128 31 16 31 z"/>
</svg>

<svg xmlns="http://www.w3.org/2000/svg" width="50" height="50" fill="#fff"><path style="text-indent:0;text-align:start;line-height:normal;text-transform:none;block-progression:tb;-inkscape-font-specification:Sans" d="M20 9v5H10v5H5v5H1.125a1 1 0 0 0-.969.813S0 25.666 0 26.75c0 .687.07 1.433.188 2.188C.13 28.95.051 28.986 0 29h.188a15.52 15.52 0 0 0 2.062 5.563c.005.007-.005.023 0 .03a1 1 0 0 0 .031.063 1 1 0 0 0 .375.594 1 1 0 0 0 .063.031c.307.445.633.89 1 1.313C6.396 39.679 10.737 42 17 42c10.221 0 18.869-4.354 23.75-13h9.094c-1.086-.275-3.42-.64-3.032-2.063-1.292 1.496-3.755 1.684-5.656 1.344.362-.688.717-1.385 1.032-2.125 2.891-.073 4.964-1.004 6.124-2.125 1.268-1.225 1.657-2.593 1.657-2.593a1 1 0 0 0-.344-1.032s-2.527-1.842-6.313-1.218c-1.08-3.537-3.874-5.25-3.874-5.25a1 1 0 0 0-.688-.126 1 1 0 0 0-.438.22s-.668.57-1.218 1.593c-.55 1.024-1.057 2.582-.875 4.594.085.941.382 1.837.812 2.687-.242.148-.383.273-.781.438-.828.342-2.034.656-3.75.656H32v-5h-5V9h-7zm2 2h3v3h-3v-3zm-10 5h3v3h-3v-3zm5 0h3v3h-3v-3zm5 0h3v3h-3v-3zm17.094.219c.742.549 2.085 1.701 2.562 4.218a1 1 0 0 0 1.25.782c2.55-.7 3.93-.125 4.688.312-.145.315-.12.514-.688 1.063-.91.88-2.452 1.766-5.343 1.656a1 1 0 0 0-.97.625c-.399.994-.86 1.918-1.343 2.813a2.11 2.11 0 0 1-.375-.282c-1.338 1.94-9.113 1.2-9.656-.312-1.677 1.968-6.885 1.968-8.563 0-.543 1.512-8.35 2.252-9.687.312-1.201 1.126-5.932 1.816-7.906-.468.187.688-.297 1.133-.938 1.437A11.462 11.462 0 0 1 2 26.75c0-.431.033-.47.063-.75H32.5c1.969 0 3.446-.377 4.5-.813 1.054-.435 1.803-.969 1.906-1.03a1 1 0 0 0 .25-1.47c-.554-.724-.844-1.627-.937-2.656-.146-1.612.234-2.74.625-3.468.133-.248.139-.195.25-.344zM7 21h3v3H7v-3zm5 0h3v3h-3v-3zm5 0h3v3h-3v-3zm5 0h3v3h-3v-3zm5 0h3v3h-3v-3zM2.25 29H38.5C33.912 36.414 26.29 40 17 40c-5.47 0-9.016-1.854-11.344-4.313 4.438.211 7.875-.968 7.875-.968a1.008 1.008 0 0 0-.25-2 1.005 1.005 0 0 0-.156.031 1 1 0 0 0-.25.063S8.785 34.208 4 33.53A13.95 13.95 0 0 1 2.25 29zM16 31a1 1 0 1 0 1 1 .949.949 0 0 0-.063-.375.443.443 0 0 1-.375.219c-.225 0-.406-.213-.406-.438 0-.15.097-.273.219-.343A1.055 1.055 0 0 0 16 31z"/></svg>
